packages/Eid/src/MattIcon/index.svg

<svg xmlns="http://www.w3.org/2000/svg" viewBox="0 0 32 32"><rect width="21" height="27" x="5.5" y="2.5" fill="#37b678"/><path fill="#2c2b2d" d="M26.5,30H5.5a.49971.49971,0,0,1-.5-.5V2.5A.49971.49971,0,0,1,5.5,2h21a.49971.49971,0,0,1,.5.5v27A.49971.49971,0,0,1,26.5,30ZM6,29H26V3H6Z"/><path fill="#2c2b2d" d="M23.5 27H8.5a.49971.49971 0 0 1-.5-.5V5.5A.49971.49971 0 0 1 8.5 5h15a.49971.49971 0 0 1 .5.5v21A.49971.49971 0 0 1 23.5 27zM9 26H23V6H9zM5.5 32a.49971.49971 0 0 1-.5-.5v-2a.5.5 0 0 1 1 0v2A.49971.49971 0 0 1 5.5 32zM7.6001 32a.49971.49971 0 0 1-.5-.5v-2a.5.5 0 1 1 1 0v2A.49972.49972 0 0 1 7.6001 32zM9.7002 32a.49971.49971 0 0 1-.5-.5v-2a.5.5 0 0 1 1 0v2A.49972.49972 0 0 1 9.7002 32zM11.7998 32a.49972.49972 0 0 1-.5-.5v-2a.5.5 0 0 1 1 0v2A.49971.49971 0 0 1 11.7998 32zM13.8999 32a.49972.49972 0 0 1-.5-.5v-2a.5.5 0 1 1 1 0v2A.49971.49971 0 0 1 13.8999 32zM16 32a.49971.49971 0 0 1-.5-.5v-2a.5.5 0 0 1 1 0v2A.49971.49971 0 0 1 16 32zM18.09961 32a.49971.49971 0 0 1-.5-.5v-2a.5.5 0 0 1 1 0v2A.49971.49971 0 0 1 18.09961 32zM20.2002 32a.49971.49971 0 0 1-.5-.5v-2a.5.5 0 0 1 1 0v2A.49972.49972 0 0 1 20.2002 32zM22.2998 32a.49972.49972 0 0 1-.5-.5v-2a.5.5 0 0 1 1 0v2A.49971.49971 0 0 1 22.2998 32zM24.40039 32a.49971.49971 0 0 1-.5-.5v-2a.5.5 0 0 1 1 0v2A.49971.49971 0 0 1 24.40039 32zM26.5 32a.49971.49971 0 0 1-.5-.5v-2a.5.5 0 0 1 1 0v2A.49971.49971 0 0 1 26.5 32zM5.5 3A.49971.49971 0 0 1 5 2.5V.5a.5.5 0 0 1 1 0v2A.49971.49971 0 0 1 5.5 3zM7.6001 3a.49971.49971 0 0 1-.5-.5V.5a.5.5 0 1 1 1 0v2A.49972.49972 0 0 1 7.6001 3zM9.7002 3a.49971.49971 0 0 1-.5-.5V.5a.5.5 0 0 1 1 0v2A.49972.49972 0 0 1 9.7002 3zM11.7998 3a.49972.49972 0 0 1-.5-.5V.5a.5.5 0 0 1 1 0v2A.49971.49971 0 0 1 11.7998 3zM13.8999 3a.49972.49972 0 0 1-.5-.5V.5a.5.5 0 0 1 1 0v2A.49971.49971 0 0 1 13.8999 3zM16 3a.49971.49971 0 0 1-.5-.5V.5a.5.5 0 0 1 1 0v2A.49971.49971 0 0 1 16 3zM18.09961 3a.49971.49971 0 0 1-.5-.5V.5a.5.5 0 0 1 1 0v2A.49971.49971 0 0 1 18.09961 3zM20.2002 3a.49971.49971 0 0 1-.5-.5V.5a.5.5 0 0 1 1 0v2A.49972.49972 0 0 1 20.2002 3zM22.2998 3a.49972.49972 0 0 1-.5-.5V.5a.5.5 0 0 1 1 0v2A.49971.49971 0 0 1 22.2998 3zM24.40039 3a.49971.49971 0 0 1-.5-.5V.5a.5.5 0 0 1 1 0v2A.49971.49971 0 0 1 24.40039 3zM26.5 3a.49971.49971 0 0 1-.5-.5V.5a.5.5 0 0 1 1 0v2A.49971.49971 0 0 1 26.5 3z"/><path fill="#e0e0e2" d="M18.98375,17.12608l.93859-.93858a.26515.26515,0,0,0,0-.375l-.93859-.93859a.26519.26519,0,0,1-.07766-.18749V13.35907a.26516.26516,0,0,0-.26515-.26516H17.31358a.26513.26513,0,0,1-.18749-.07766l-.9386-.9386a.26517.26517,0,0,0-.375,0l-.9386.9386a.26513.26513,0,0,1-.18749.07766H13.35906a.26516.26516,0,0,0-.26515.26516v1.32737a.26519.26519,0,0,1-.07766.18749l-.93859.93859a.26515.26515,0,0,0,0,.375l.93859.93858a.26519.26519,0,0,1,.07766.18749V18.641a.26515.26515,0,0,0,.26515.26515h1.32737a.26511.26511,0,0,1,.18749.07766l.93859.93859a.26517.26517,0,0,0,.375,0l.93859-.93859a.26511.26511,0,0,1,.18749-.07766h1.32737a.26515.26515,0,0,0,.26515-.26515V17.31357A.26519.26519,0,0,1,18.98375,17.12608Z"/><path fill="#2c2b2d" d="M16,20.5a.75973.75973,0,0,1-.541-.22412l-.86962-.86963H13.35889a.766.766,0,0,1-.76514-.76514V17.41064l-.86963-.86962a.76506.76506,0,0,1,0-1.082l.86963-.86962V13.35889a.766.766,0,0,1,.76514-.76514h1.23047l.86962-.86963a.78347.78347,0,0,1,1.082,0l.87011.86963h1.2295a.76645.76645,0,0,1,.76562.76514v1.231l.86914.86914a.76331.76331,0,0,1-.002,1.0835l-.86719.86768v1.231a.76645.76645,0,0,1-.76562.76514h-1.2295l-.87011.86963A.75973.75973,0,0,1,16,20.5Zm-2.40625-2.09375h1.09277a.75971.75971,0,0,1,.541.22412L16,19.40283l.77246-.77246a.76055.76055,0,0,1,.541-.22412h1.09277V17.31348a.75841.75841,0,0,1,.22363-.541L19.40234,16l-.77246-.77246a.75841.75841,0,0,1-.22363-.541V13.59375H17.31348a.76055.76055,0,0,1-.541-.22412L16,12.59717l-.77246.77246a.75971.75971,0,0,1-.541.22412H13.59375v1.09277a.75971.75971,0,0,1-.22412.541L12.59717,16l.77246.77246a.75971.75971,0,0,1,.22412.541Zm5.97461-2.23975.002.001Zm0-.33252-.001.00147Z"/><path fill="#e0e0e2" d="M11,5.5h0A2.5,2.5,0,0,1,13.5,8v2.5a0,0,0,0,1,0,0H11A2.5,2.5,0,0,1,8.5,8V8A2.5,2.5,0,0,1,11,5.5Z" transform="rotate(180 11 8)"/><path fill="#2c2b2d" d="M11,11A3.00328,3.00328,0,0,1,8,8V5.5A.49971.49971,0,0,1,8.5,5H11a3,3,0,0,1,0,6ZM9,6V8a2,2,0,1,0,2-2Z"/><path fill="#e0e0e2" d="M21,5.5h2.5a0,0,0,0,1,0,0V8A2.5,2.5,0,0,1,21,10.5h0A2.5,2.5,0,0,1,18.5,8V8A2.5,2.5,0,0,1,21,5.5Z"/><path fill="#2c2b2d" d="M21,11a3,3,0,0,1,0-6h2.5a.49971.49971,0,0,1,.5.5V8A3.00328,3.00328,0,0,1,21,11Zm0-5a2,2,0,1,0,2,2V6Z"/><path fill="#e0e0e2" d="M11,21.5h2.5a0,0,0,0,1,0,0V24A2.5,2.5,0,0,1,11,26.5h0A2.5,2.5,0,0,1,8.5,24v0A2.5,2.5,0,0,1,11,21.5Z" transform="rotate(-180 11 24)"/><path fill="#2c2b2d" d="M11,27H8.5a.49971.49971,0,0,1-.5-.5V24a3,3,0,1,1,3,3ZM9,26h2a2,2,0,1,0-2-2Z"/><path fill="#e0e0e2" d="M21,21.5h0A2.5,2.5,0,0,1,23.5,24v2.5a0,0,0,0,1,0,0H21A2.5,2.5,0,0,1,18.5,24v0A2.5,2.5,0,0,1,21,21.5Z"/><path fill="#2c2b2d" d="M23.5,27H21a3,3,0,1,1,3-3v2.5A.49971.49971,0,0,1,23.5,27ZM21,22a2,2,0,0,0,0,4h2V24A2.00229,2.00229,0,0,0,21,22Z"/><circle cx="11" cy="24" r=".5" fill="#2c2b2d"/><circle cx="21" cy="24" r=".5" fill="#2c2b2d"/><circle cx="16" cy="16" r=".5" fill="#2c2b2d"/><circle cx="11" cy="8" r=".5" fill="#2c2b2d"/><circle cx="21" cy="8" r=".5" fill="#2c2b2d"/></svg>

<svg xmlns="http://www.w3.org/2000/svg" viewBox="0 0 32 32">
  <path fill="#37b678" d="M5.5 2.5h21v27h-21z"/>
  <path fill="#2c2b2d" d="M26.5 30h-21a.5.5 0 01-.5-.5v-27a.5.5 0 01.5-.5h21a.5.5 0 01.5.5v27a.5.5 0 01-.5.5zM6 29h20V3H6z"/>
  <path fill="#2c2b2d" d="M23.5 27h-15a.5.5 0 01-.5-.5v-21a.5.5 0 01.5-.5h15a.5.5 0 01.5.5v21a.5.5 0 01-.5.5zM9 26h14V6H9zm-3.5 6a.5.5 0 01-.5-.5v-2a.5.5 0 011 0v2a.5.5 0 01-.5.5zm2.1 0a.5.5 0 01-.5-.5v-2a.5.5 0 111 0v2a.5.5 0 01-.5.5zm2.1 0a.5.5 0 01-.5-.5v-2a.5.5 0 011 0v2a.5.5 0 01-.5.5zm2.1 0a.5.5 0 01-.5-.5v-2a.5.5 0 011 0v2a.5.5 0 01-.5.5zm2.1 0a.5.5 0 01-.5-.5v-2a.5.5 0 111 0v2a.5.5 0 01-.5.5zm2.1 0a.5.5 0 01-.5-.5v-2a.5.5 0 011 0v2a.5.5 0 01-.5.5zm2.1 0a.5.5 0 01-.5-.5v-2a.5.5 0 011 0v2a.5.5 0 01-.5.5zm2.1 0a.5.5 0 01-.5-.5v-2a.5.5 0 011 0v2a.5.5 0 01-.5.5zm2.1 0a.5.5 0 01-.5-.5v-2a.5.5 0 011 0v2a.5.5 0 01-.5.5zm2.1 0a.5.5 0 01-.5-.5v-2a.5.5 0 011 0v2a.5.5 0 01-.5.5zm2.1 0a.5.5 0 01-.5-.5v-2a.5.5 0 011 0v2a.5.5 0 01-.5.5zM5.5 3a.5.5 0 01-.5-.5v-2a.5.5 0 011 0v2a.5.5 0 01-.5.5zm2.1 0a.5.5 0 01-.5-.5v-2a.5.5 0 111 0v2a.5.5 0 01-.5.5zm2.1 0a.5.5 0 01-.5-.5v-2a.5.5 0 011 0v2a.5.5 0 01-.5.5zm2.1 0a.5.5 0 01-.5-.5v-2a.5.5 0 011 0v2a.5.5 0 01-.5.5zm2.1 0a.5.5 0 01-.5-.5v-2a.5.5 0 011 0v2a.5.5 0 01-.5.5zM16 3a.5.5 0 01-.5-.5v-2a.5.5 0 011 0v2a.5.5 0 01-.5.5zm2.1 0a.5.5 0 01-.5-.5v-2a.5.5 0 011 0v2a.5.5 0 01-.5.5zm2.1 0a.5.5 0 01-.5-.5v-2a.5.5 0 011 0v2a.5.5 0 01-.5.5zm2.1 0a.5.5 0 01-.5-.5v-2a.5.5 0 011 0v2a.5.5 0 01-.5.5zm2.1 0a.5.5 0 01-.5-.5v-2a.5.5 0 011 0v2a.5.5 0 01-.5.5zm2.1 0a.5.5 0 01-.5-.5v-2a.5.5 0 011 0v2a.5.5 0 01-.5.5z"/>
  <path fill="#e0e0e2" d="M18.984 17.126l.938-.938a.265.265 0 000-.375l-.938-.94a.265.265 0 01-.078-.187V13.36a.265.265 0 00-.265-.265h-1.327a.265.265 0 01-.188-.078l-.939-.938a.265.265 0 00-.375 0l-.938.938a.265.265 0 01-.188.078H13.36a.265.265 0 00-.265.265v1.327a.265.265 0 01-.078.188l-.938.939a.265.265 0 000 .375l.938.938a.265.265 0 01.078.188v1.327a.265.265 0 00.265.265h1.327a.265.265 0 01.188.078l.939.938a.265.265 0 00.375 0l.938-.938a.265.265 0 01.188-.078h1.327a.265.265 0 00.265-.265v-1.327a.265.265 0 01.078-.188z"/>
  <path fill="#2c2b2d" d="M16 20.5a.76.76 0 01-.541-.224l-.87-.87h-1.23a.766.766 0 01-.765-.765v-1.23l-.87-.87a.765.765 0 010-1.082l.87-.87v-1.23a.766.766 0 01.765-.765h1.23l.87-.87a.783.783 0 011.082 0l.87.87h1.23a.766.766 0 01.765.765v1.23l.87.87a.763.763 0 01-.003 1.084l-.867.867v1.231a.766.766 0 01-.765.765h-1.23l-.87.87A.76.76 0 0116 20.5zm-2.406-2.094h1.093a.76.76 0 01.54.224l.773.773.772-.773a.76.76 0 01.541-.224h1.093v-1.093a.758.758 0 01.224-.54l.772-.773-.772-.772a.758.758 0 01-.224-.541v-1.093h-1.093a.76.76 0 01-.54-.224L16 12.597l-.772.773a.76.76 0 01-.541.224h-1.093v1.093a.76.76 0 01-.224.54l-.773.773.773.772a.76.76 0 01.224.541zm5.974-2.24l.002.001zm0-.332v.001z"/>
  <path fill="#e0e0e2" d="M11 10.5A2.5 2.5 0 018.5 8V5.5H11A2.5 2.5 0 0113.5 8a2.5 2.5 0 01-2.5 2.5z"/>
  <path fill="#2c2b2d" d="M11 11a3.003 3.003 0 01-3-3V5.5a.5.5 0 01.5-.5H11a3 3 0 010 6zM9 6v2a2 2 0 102-2z"/>
  <path fill="#e0e0e2" d="M21 5.5h2.5V8a2.5 2.5 0 01-2.5 2.5A2.5 2.5 0 0118.5 8 2.5 2.5 0 0121 5.5z"/>
  <path fill="#2c2b2d" d="M21 11a3 3 0 010-6h2.5a.5.5 0 01.5.5V8a3.003 3.003 0 01-3 3zm0-5a2 2 0 102 2V6z"/>
  <path fill="#e0e0e2" d="M11 26.5H8.5V24a2.5 2.5 0 012.5-2.5 2.5 2.5 0 012.5 2.5 2.5 2.5 0 01-2.5 2.5z"/>
  <path fill="#2c2b2d" d="M11 27H8.5a.5.5 0 01-.5-.5V24a3 3 0 113 3zm-2-1h2a2 2 0 10-2-2z"/>
  <path fill="#e0e0e2" d="M21 21.5a2.5 2.5 0 012.5 2.5v2.5H21a2.5 2.5 0 01-2.5-2.5 2.5 2.5 0 012.5-2.5z"/>
  <path fill="#2c2b2d" d="M23.5 27H21a3 3 0 113-3v2.5a.5.5 0 01-.5.5zM21 22a2 2 0 000 4h2v-2a2.002 2.002 0 00-2-2z"/>
  <circle cx="11" cy="24" r=".5" fill="#2c2b2d"/>
  <circle cx="21" cy="24" r=".5" fill="#2c2b2d"/>
  <circle cx="16" cy="16" r=".5" fill="#2c2b2d"/>
  <circle cx="11" cy="8" r=".5" fill="#2c2b2d"/>
  <circle cx="21" cy="8" r=".5" fill="#2c2b2d"/>
</svg>
